X: 44
T:Prince of Beven's Jig,The. JB.43
M:6/8
L:1/8
Q:100
S:James Biggins MS, Leeds, 1779.
R:Jig
O:England
A:Yorkshire
Z:vmp.Nick Barber & Chris Partington
K:G
d/c/|BGB dcB|AFA cBA|BGB dcB|gfed2c|!
BGB dcB|AFA ABc|dcB cBA|G3G,2:|!
|e/f/|gdB gdB|g>ag "tr"f>ef|gdB gdB|agaA2e/f/|!
gdB ecA|dBG F>ED|E/F/GE F/G/AF|G3G,2:|]
